svgs/sharp-regular/arrow-down-from-dotted-line.svg

<svg xmlns="http://www.w3.org/2000/svg" viewBox="0 0 448 512"><!--! Font Awesome Pro 6.6.0 by @fontawesome - https://fontawesome.com License - https://fontawesome.com/license (Commercial License) Copyright 2024 Fonticons, Inc. --><path d="M241.3 461.5L224 479.4l-17.3-17.9L78.7 328.7 62.1 311.4l34.6-33.3 16.7 17.3 86.7 90L200 184l0-24 48 0 0 24 0 201.3 86.7-90 16.7-17.3 34.6 33.3-16.7 17.3-128 132.8zM64 96L0 96 0 32l64 0 0 64zm96 0L96 96l0-64 64 0 0 64zm32-64l64 0 0 64-64 0 0-64zM352 96l-64 0 0-64 64 0 0 64zm32 0l0-64 64 0 0 64-64 0z"/></svg>

<svg xmlns="http://www.w3.org/2000/svg" viewBox="0 0 448 512"><!--! Font Awesome Pro 6.4.0 by @fontawesome - https://fontawesome.com License - https://fontawesome.com/license (Commercial License) Copyright 2023 Fonticons, Inc. --><path d="M241.3 461.5L224 479.4l-17.3-17.9L78.7 328.7 62.1 311.4l34.6-33.3 16.7 17.3 86.7 90V184 160h48v24V385.3l86.7-90 16.7-17.3 34.6 33.3-16.7 17.3-128 132.8zM64 96H0V32H64V96zm96 0H96V32h64V96zm32-64h64V96H192V32zM352 96H288V32h64V96zm32 0V32h64V96H384z"/></svg>
